DEF 09_robCode
PTP $POS_ACT
$VEL.CP=0.336170
LIN {X 1449.744629, Y 38.908890, Z 1135.591064, A 0.000000, B 0.000000, C 0.000000} 
LIN {X 1471.713501, Y 85.599152, Z 1232.789307, A 0.000000, B 0.000000, C 0.000000} 
$VEL.CP=0.185096
LIN {X 1480.329956, Y 87.015732, Z 1256.333496, A 0.000000, B 0.000000, C 0.000000} 
$VEL.CP=0.235940
LIN {X 1494.182129, Y 76.247276, Z 1280.548340, A 0.000000, B 0.000000, C 0.000000} 
$VEL.CP=0.329340
LIN {X 1505.160156, Y 60.459221, Z 1290.895508, A 0.000000, B 0.000000, C 0.000000} 
$VEL.CP=0.453088
LIN {X 1519.009399, Y 22.772020, Z 1297.878662, A 0.000000, B 0.000000, C 0.000000} 
$VEL.CP=0.616038
LIN {X 1526.342041, Y -50.763859, Z 1299.651367, A 0.000000, B 0.000000, C 0.000000} 
$VEL.CP=0.752154
LIN {X 1520.447754, Y -118.339272, Z 1290.291504, A 0.000000, B 0.000000, C 0.000000} 
$VEL.CP=0.753669
LIN {X 1493.166382, Y -212.178436, Z 1241.442261, A 0.000000, B 0.000000, C 0.000000} 
$VEL.CP=0.694494
LIN {X 1465.543091, Y -306.370270, Z 1150.622681, A 0.000000, B 0.000000, C 0.000000} 
$VEL.CP=0.600943
LIN {X 1463.554199, Y -379.545227, Z 1071.511108, A 0.000000, B 0.000000, C 0.000000} 
$VEL.CP=0.539882
LIN {X 1470.735596, Y -405.593811, Z 1056.373413, A 0.000000, B 0.000000, C 0.000000} 
$VEL.CP=0.796533
LIN {X 1478.959961, Y -452.912384, Z 1045.067261, A 0.000000, B 0.000000, C 0.000000} 
$VEL.CP=0.395571
LIN {X 1488.299805, Y -527.497986, Z 1044.343994, A 0.000000, B 0.000000, C 0.000000} 
$VEL.CP=0.418538
LIN {X 1461.423218, Y -471.136963, Z 1039.407959, A 0.000000, B 0.000000, C 0.000000} 
$VEL.CP=0.792366
LIN {X 1442.114624, Y -402.584412, Z 1046.036011, A 0.000000, B 0.000000, C 0.000000} 
$VEL.CP=0.890942
LIN {X 1439.002075, Y -393.673096, Z 1041.175171, A 0.000000, B 0.000000, C 0.000000} 
$VEL.CP=0.920685
LIN {X 1431.865112, Y -348.481873, Z 1054.158691, A 0.000000, B 0.000000, C 0.000000} 
$VEL.CP=0.837694
LIN {X 1423.760254, Y -265.566254, Z 1092.467896, A 0.000000, B 0.000000, C 0.000000} 
$VEL.CP=0.642634
LIN {X 1426.162476, Y -177.213913, Z 1176.087891, A 0.000000, B 0.000000, C 0.000000} 
$VEL.CP=0.254056
LIN {X 1433.792358, Y -155.890366, Z 1242.355103, A 0.000000, B 0.000000, C 0.000000} 
$VEL.CP=0.251085
LIN {X 1440.876343, Y -165.801743, Z 1281.624634, A 0.000000, B 0.000000, C 0.000000} 
$VEL.CP=0.414230
LIN {X 1446.728882, Y -179.953140, Z 1301.636719, A 0.000000, B 0.000000, C 0.000000} 
$VEL.CP=0.470492
LIN {X 1455.107422, Y -200.685867, Z 1317.359863, A 0.000000, B 0.000000, C 0.000000} 
$VEL.CP=0.623404
LIN {X 1464.606445, Y -230.134689, Z 1324.418701, A 0.000000, B 0.000000, C 0.000000} 
$VEL.CP=0.652408
LIN {X 1472.924805, Y -261.911499, Z 1316.983521, A 0.000000, B 0.000000, C 0.000000} 
$VEL.CP=0.684935
LIN {X 1477.939697, Y -289.469330, Z 1300.000610, A 0.000000, B 0.000000, C 0.000000} 
$VEL.CP=0.631105
LIN {X 1486.549561, Y -353.142853, Z 1227.246216, A 0.000000, B 0.000000, C 0.000000} 
$VEL.CP=0.427395
LIN {X 1489.058105, Y -389.325623, Z 1154.034790, A 0.000000, B 0.000000, C 0.000000} 
$VEL.CP=0.192270
LIN {X 1486.471680, Y -414.180969, Z 1061.402344, A 0.000000, B 0.000000, C 0.000000} 
$VEL.CP=0.041607
LIN {X 1479.834106, Y -408.041138, Z 1010.051514, A 0.000000, B 0.000000, C 0.000000} 
$VEL.CP=0.322647
LIN {X 1472.437744, Y -386.841431, Z 1013.032837, A 0.000000, B 0.000000, C 0.000000} 
$VEL.CP=0.521280
LIN {X 1459.197021, Y -332.726562, Z 1075.395386, A 0.000000, B 0.000000, C 0.000000} 
$VEL.CP=0.461730
LIN {X 1459.100708, Y -274.788879, Z 1198.497314, A 0.000000, B 0.000000, C 0.000000} 
$VEL.CP=0.282652
LIN {X 1471.411987, Y -264.328888, Z 1263.744263, A 0.000000, B 0.000000, C 0.000000} 
$VEL.CP=0.308345
LIN {X 1482.928345, Y -270.359558, Z 1298.092407, A 0.000000, B 0.000000, C 0.000000} 
$VEL.CP=0.480327
LIN {X 1495.809204, Y -289.514984, Z 1320.061646, A 0.000000, B 0.000000, C 0.000000} 
$VEL.CP=0.625603
LIN {X 1510.236694, Y -330.133179, Z 1322.744507, A 0.000000, B 0.000000, C 0.000000} 
$VEL.CP=0.605552
LIN {X 1515.663940, Y -366.677643, Z 1300.315918, A 0.000000, B 0.000000, C 0.000000} 
$VEL.CP=0.620660
LIN {X 1514.456787, Y -398.778351, Z 1265.883301, A 0.000000, B 0.000000, C 0.000000} 
$VEL.CP=0.647512
LIN {X 1502.796143, Y -496.553894, Z 1134.679932, A 0.000000, B 0.000000, C 0.000000} 
$VEL.CP=0.757803
LIN {X 1500.012207, Y -557.448120, Z 1068.745239, A 0.000000, B 0.000000, C 0.000000} 
$VEL.CP=0.864028
LIN {X 1508.689819, Y -652.810181, Z 1000.730652, A 0.000000, B 0.000000, C 0.000000} 
$VEL.CP=0.608368
LIN {X 1519.744507, Y -706.994019, Z 970.634033, A 0.000000, B 0.000000, C 0.000000} 
$VEL.CP=0.228680
LIN {X 1514.360107, Y -721.393188, Z 946.600525, A 0.000000, B 0.000000, C 0.000000} 
$VEL.CP=0.361997
LIN {X 1495.453613, Y -704.535583, Z 937.727905, A 0.000000, B 0.000000, C 0.000000} 
$VEL.CP=0.762663
LIN {X 1466.475220, Y -651.128174, Z 952.976501, A 0.000000, B 0.000000, C 0.000000} 
$VEL.CP=0.910582
LIN {X 1440.638306, Y -573.975342, Z 1001.023071, A 0.000000, B 0.000000, C 0.000000} 
$VEL.CP=0.847778
LIN {X 1429.556274, Y -516.568665, Z 1052.737671, A 0.000000, B 0.000000, C 0.000000} 
$VEL.CP=0.445580
LIN {X 1428.548096, Y -474.097626, Z 1123.286255, A 0.000000, B 0.000000, C 0.000000} 
$VEL.CP=0.246741
LIN {X 1436.293335, Y -474.307831, Z 1141.974731, A 0.000000, B 0.000000, C 0.000000} 
$VEL.CP=0.466396
LIN {X 1444.987549, Y -484.385529, Z 1151.286499, A 0.000000, B 0.000000, C 0.000000} 
$VEL.CP=0.581570
LIN {X 1500.445190, Y -526.359375, Z 1167.820312, A 0.000000, B 0.000000, C 0.000000} 
$VEL.CP=0.489256
LIN {X 1551.253906, Y -542.771973, Z 1190.568848, A 0.000000, B 0.000000, C 0.000000} 
$VEL.CP=0.319037
LIN {X 1582.746216, Y -531.193237, Z 1232.304199, A 0.000000, B 0.000000, C 0.000000} 
$VEL.CP=0.242948
LIN {X 1592.803101, Y -524.017456, Z 1262.230347, A 0.000000, B 0.000000, C 0.000000} 
$VEL.CP=0.214370
LIN {X 1602.334106, Y -527.134094, Z 1294.671509, A 0.000000, B 0.000000, C 0.000000} 
$VEL.CP=0.344204
LIN {X 1611.005981, Y -544.498047, Z 1319.574463, A 0.000000, B 0.000000, C 0.000000} 
$VEL.CP=0.510896
LIN {X 1619.493042, Y -578.478088, Z 1327.583496, A 0.000000, B 0.000000, C 0.000000} 
$VEL.CP=0.656526
LIN {X 1622.580688, Y -618.140015, Z 1312.129395, A 0.000000, B 0.000000, C 0.000000} 
$VEL.CP=0.580423
LIN {X 1616.398926, Y -676.839783, Z 1254.644531, A 0.000000, B 0.000000, C 0.000000} 
$VEL.CP=0.420088
LIN {X 1594.845093, Y -742.583191, Z 1120.126953, A 0.000000, B 0.000000, C 0.000000} 
$VEL.CP=0.523905
LIN {X 1595.137207, Y -790.788269, Z 1045.284912, A 0.000000, B 0.000000, C 0.000000} 
$VEL.CP=0.567375
LIN {X 1608.654175, Y -852.568359, Z 993.124084, A 0.000000, B 0.000000, C 0.000000} 
$VEL.CP=0.797153
LIN {X 1622.799561, Y -906.769409, Z 981.060181, A 0.000000, B 0.000000, C 0.000000} 
$VEL.CP=0.282711
LIN {X 1640.397339, Y -948.089661, Z 982.838379, A 0.000000, B 0.000000, C 0.000000} 
$VEL.CP=0.476961
LIN {X 1590.613525, Y -866.711426, Z 982.258362, A 0.000000, B 0.000000, C 0.000000} 
$VEL.CP=0.782007
LIN {X 1540.888672, Y -779.077698, Z 994.420471, A 0.000000, B 0.000000, C 0.000000} 
$VEL.CP=0.828202
LIN {X 1507.194946, Y -713.118530, Z 1029.448853, A 0.000000, B 0.000000, C 0.000000} 
$VEL.CP=0.721904
LIN {X 1492.073486, Y -665.839294, Z 1074.264282, A 0.000000, B 0.000000, C 0.000000} 
$VEL.CP=0.578299
LIN {X 1488.172729, Y -632.929382, Z 1127.098877, A 0.000000, B 0.000000, C 0.000000} 
$VEL.CP=0.199292
LIN {X 1488.264893, Y -629.482971, Z 1170.802368, A 0.000000, B 0.000000, C 0.000000} 
$VEL.CP=0.431951
LIN {X 1496.584351, Y -656.358154, Z 1219.215210, A 0.000000, B 0.000000, C 0.000000} 
$VEL.CP=0.598335
LIN {X 1507.352783, Y -690.192383, Z 1233.266602, A 0.000000, B 0.000000, C 0.000000} 
$VEL.CP=0.450918
LIN {X 1514.010254, Y -731.155273, Z 1195.600952, A 0.000000, B 0.000000, C 0.000000} 
$VEL.CP=0.400173
LIN {X 1513.996582, Y -769.169067, Z 1121.638306, A 0.000000, B 0.000000, C 0.000000} 
$VEL.CP=0.070615
LIN {X 1511.849854, Y -776.987610, Z 1084.780151, A 0.000000, B 0.000000, C 0.000000} 
$VEL.CP=0.033624
LIN {X 1502.206299, Y -774.734558, Z 1037.710693, A 0.000000, B 0.000000, C 0.000000} 
$VEL.CP=0.332224
LIN {X 1490.286743, Y -761.843506, Z 1021.548767, A 0.000000, B 0.000000, C 0.000000} 
$VEL.CP=0.428718
LIN {X 1478.710571, Y -749.269043, Z 1022.525635, A 0.000000, B 0.000000, C 0.000000} 
$VEL.CP=0.368831
LIN {X 1464.176025, Y -739.402588, Z 1038.270874, A 0.000000, B 0.000000, C 0.000000} 
$VEL.CP=0.328902
LIN {X 1450.479736, Y -727.958008, Z 1073.705200, A 0.000000, B 0.000000, C 0.000000} 
$VEL.CP=0.182389
LIN {X 1442.372559, Y -717.656128, Z 1150.796875, A 0.000000, B 0.000000, C 0.000000} 
$VEL.CP=0.145093
LIN {X 1452.983398, Y -723.672913, Z 1254.289185, A 0.000000, B 0.000000, C 0.000000} 
$VEL.CP=0.190758
LIN {X 1450.245483, Y -719.451355, Z 1270.741211, A 0.000000, B 0.000000, C 0.000000} 
$VEL.CP=0.267157
LIN {X 1441.256592, Y -713.980347, Z 1272.473633, A 0.000000, B 0.000000, C 0.000000} 
$VEL.CP=0.264612
LIN {X 1425.207397, Y -720.494019, Z 1248.506958, A 0.000000, B 0.000000, C 0.000000} 
$VEL.CP=0.196441
LIN {X 1418.937866, Y -731.403809, Z 1217.578247, A 0.000000, B 0.000000, C 0.000000} 
$VEL.CP=0.287957
LIN {X 1418.235474, Y -760.189026, Z 1131.438354, A 0.000000, B 0.000000, C 0.000000} 
$VEL.CP=0.602228
LIN {X 1425.416504, Y -791.490967, Z 1069.097046, A 0.000000, B 0.000000, C 0.000000} 
$VEL.CP=0.524000
LIN {X 1430.313477, Y -792.090576, Z 1070.655884, A 0.000000, B 0.000000, C 0.000000} 
$VEL.CP=0.851484
LIN {X 1455.678833, Y -856.462708, Z 997.149536, A 0.000000, B 0.000000, C 0.000000} 
$VEL.CP=1.265010
LIN {X 1479.631958, Y -915.576477, Z 963.366760, A 0.000000, B 0.000000, C 0.000000} 
$VEL.CP=1.412135
LIN {X 1506.064453, Y -965.769531, Z 949.657532, A 0.000000, B 0.000000, C 0.000000} 
$VEL.CP=1.352720
LIN {X 1566.036499, Y -1037.491333, Z 935.289856, A 0.000000, B 0.000000, C 0.000000} 
$VEL.CP=1.199788
LIN {X 1593.748413, Y -1060.430664, Z 935.979614, A 0.000000, B 0.000000, C 0.000000} 
$VEL.CP=0.723237
LIN {X 1628.217285, Y -1071.581543, Z 933.597046, A 0.000000, B 0.000000, C 0.000000} 
$VEL.CP=0.422468
LIN {X 1682.072998, Y -1047.551392, Z 943.747009, A 0.000000, B 0.000000, C 0.000000} 
$VEL.CP=0.419118
LIN {X 1730.618530, Y -964.832275, Z 950.070740, A 0.000000, B 0.000000, C 0.000000} 
$VEL.CP=0.239563
LIN {X 1761.440430, Y -968.230835, Z 954.248535, A 0.000000, B 0.000000, C 0.000000} 
$VEL.CP=0.000000
