DEF output\path_03.src
PTP $POS_ACT
$VEL.CP=0.336170
LIN {X 1449.744686, Y 38.908888, Z 1135.591066, A 304.905386, B 288.518167, C 224.451092} 
$VEL.CP=0.185096
LIN {X 1471.713502, Y 85.599154, Z 1232.789340, A 303.863520, B 290.575484, C 225.807683} 
$VEL.CP=0.235940
LIN {X 1480.329906, Y 87.015728, Z 1256.333540, A 306.623106, B 289.768137, C 222.813092} 
$VEL.CP=0.329340
LIN {X 1494.182128, Y 76.247278, Z 1280.548330, A 311.382670, B 288.980205, C 218.755441} 
$VEL.CP=0.453088
LIN {X 1505.160110, Y 60.459222, Z 1290.895462, A 313.521650, B 288.238493, C 217.815238} 
$VEL.CP=0.616038
LIN {X 1519.009452, Y 22.772020, Z 1297.878682, A 316.436620, B 287.600316, C 216.088169} 
$VEL.CP=0.752154
LIN {X 1526.342012, Y -50.763858, Z 1299.651312, A 322.764071, B 287.855469, C 212.264011} 
$VEL.CP=0.753669
LIN {X 1520.447700, Y -118.339272, Z 1290.291564, A 327.026060, B 288.571131, C 207.674114} 
$VEL.CP=0.694494
LIN {X 1493.166436, Y -212.178440, Z 1241.442272, A 325.666420, B 287.310170, C 210.156722} 
$VEL.CP=0.600943
LIN {X 1465.543046, Y -306.370282, Z 1150.622666, A 317.603559, B 282.473237, C 219.154647} 
$VEL.CP=0.539882
LIN {X 1463.554212, Y -379.545236, Z 1071.511082, A 288.650602, B 279.180723, C 251.979326} 
$VEL.CP=0.796533
LIN {X 1470.735646, Y -405.593802, Z 1056.373354, A 276.924690, B 279.439266, C 266.231218} 
$VEL.CP=0.395571
LIN {X 1478.959944, Y -452.912396, Z 1045.067306, A 260.925006, B 277.376011, C 285.116904} 
$VEL.CP=0.418538
LIN {X 1488.299796, Y -527.498010, Z 1044.343966, A 228.853593, B 276.602375, C 321.769247} 
$VEL.CP=0.792366
LIN {X 1461.423272, Y -471.136960, Z 1039.408002, A 268.006407, B 275.373735, C 278.687556} 
$VEL.CP=0.890942
LIN {X 1442.114602, Y -402.584398, Z 1046.036042, A 291.587461, B 278.447455, C 251.617840} 
$VEL.CP=0.920685
LIN {X 1439.002078, Y -393.673094, Z 1041.175122, A 286.165798, B 278.371057, C 256.725204} 
$VEL.CP=0.837694
LIN {X 1431.865084, Y -348.481870, Z 1054.158732, A 292.592146, B 281.064727, C 248.240612} 
$VEL.CP=0.642634
LIN {X 1423.760314, Y -265.566260, Z 1092.467924, A 298.127659, B 286.035859, C 239.148399} 
$VEL.CP=0.254056
LIN {X 1426.162438, Y -177.213908, Z 1176.087864, A 301.992586, B 293.078742, C 232.827248} 
$VEL.CP=0.251085
LIN {X 1433.792308, Y -155.890362, Z 1242.355146, A 309.173743, B 296.486560, C 225.166150} 
$VEL.CP=0.414230
LIN {X 1440.876394, Y -165.801738, Z 1281.624580, A 316.678790, B 298.164994, C 217.784363} 
$VEL.CP=0.470492
LIN {X 1446.728872, Y -179.953138, Z 1301.636778, A 321.591544, B 298.899114, C 213.184034} 
$VEL.CP=0.623404
LIN {X 1455.107402, Y -200.685874, Z 1317.359888, A 326.391312, B 299.516134, C 209.204578} 
$VEL.CP=0.652408
LIN {X 1464.606506, Y -230.134692, Z 1324.418738, A 332.083411, B 300.063240, C 204.520238} 
$VEL.CP=0.684935
LIN {X 1472.924746, Y -261.911484, Z 1316.983560, A 336.678748, B 299.606719, C 200.616950} 
$VEL.CP=0.631105
LIN {X 1477.939650, Y -289.469318, Z 1300.000596, A 340.410439, B 298.300526, C 197.424670} 
$VEL.CP=0.427395
LIN {X 1486.549546, Y -353.142866, Z 1227.246274, A 348.496897, B 294.097639, C 188.961924} 
$VEL.CP=0.192270
LIN {X 1489.058106, Y -389.325636, Z 1154.034746, A 355.563745, B 290.081861, C 180.542660} 
$VEL.CP=0.041607
LIN {X 1486.471668, Y -414.180972, Z 1061.402286, A 4.748143, B 285.235905, C 170.099741} 
$VEL.CP=0.322647
LIN {X 1479.834124, Y -408.041148, Z 1010.051496, A 3.230239, B 282.585483, C 171.377647} 
$VEL.CP=0.521280
LIN {X 1472.437798, Y -386.841438, Z 1013.032838, A 353.275496, B 283.541641, C 180.301957} 
$VEL.CP=0.461730
LIN {X 1459.197004, Y -332.726568, Z 1075.395372, A 338.336260, B 288.216695, C 194.219343} 
$VEL.CP=0.282652
LIN {X 1459.100702, Y -274.788874, Z 1198.497324, A 333.817623, B 296.081836, C 197.150798} 
$VEL.CP=0.308345
LIN {X 1471.411994, Y -264.328898, Z 1263.744272, A 335.283969, B 300.956175, C 194.677389} 
$VEL.CP=0.480327
LIN {X 1482.928380, Y -270.359562, Z 1298.092382, A 336.911275, B 303.631280, C 191.935699} 
$VEL.CP=0.625603
LIN {X 1495.809192, Y -289.514984, Z 1320.061646, A 340.217909, B 305.832782, C 188.188636} 
$VEL.CP=0.605552
LIN {X 1510.236724, Y -330.133178, Z 1322.744470, A 344.474138, B 306.932019, C 183.434561} 
$VEL.CP=0.620660
LIN {X 1515.663986, Y -366.677632, Z 1300.315888, A 346.526614, B 305.519878, C 181.795936} 
$VEL.CP=0.647512
LIN {X 1514.456800, Y -398.778366, Z 1265.883300, A 349.046302, B 302.538843, C 180.189079} 
$VEL.CP=0.757803
LIN {X 1502.796094, Y -496.553884, Z 1134.679930, A 355.522254, B 291.722237, C 178.182247} 
$VEL.CP=0.864028
LIN {X 1500.012148, Y -557.448094, Z 1068.745182, A 3.490956, B 284.814211, C 174.682424} 
$VEL.CP=0.608368
LIN {X 1508.689866, Y -652.810196, Z 1000.730662, A 31.362630, B 276.889185, C 152.980142} 
$VEL.CP=0.228680
LIN {X 1519.744462, Y -706.994020, Z 970.634020, A 63.268433, B 272.151581, C 126.326030} 
$VEL.CP=0.361997
LIN {X 1514.360064, Y -721.393196, Z 946.600522, A 204.500320, B 271.494133, C 346.420949} 
$VEL.CP=0.762663
LIN {X 1495.453674, Y -704.535556, Z 937.727890, A 277.324091, B 273.678289, C 272.802015} 
$VEL.CP=0.910582
LIN {X 1466.475192, Y -651.128166, Z 952.976476, A 307.439062, B 277.921424, C 238.324516} 
$VEL.CP=0.847778
LIN {X 1440.638258, Y -573.975372, Z 1001.023050, A 314.938723, B 284.042975, C 225.781097} 
$VEL.CP=0.445580
LIN {X 1429.556252, Y -516.568692, Z 1052.737638, A 315.454893, B 289.381303, C 221.326759} 
$VEL.CP=0.246741
LIN {X 1428.548128, Y -474.097640, Z 1123.286290, A 322.128478, B 294.441805, C 208.012129} 
$VEL.CP=0.466396
LIN {X 1436.293380, Y -474.307842, Z 1141.974770, A 327.688032, B 295.000107, C 201.185763} 
$VEL.CP=0.581570
LIN {X 1444.987494, Y -484.385522, Z 1151.286530, A 334.423413, B 294.822594, C 194.208834} 
$VEL.CP=0.489256
LIN {X 1500.445130, Y -526.359368, Z 1167.820340, A 352.268405, B 294.848785, C 177.436535} 
$VEL.CP=0.319037
LIN {X 1551.253848, Y -542.771974, Z 1190.568816, A 357.306258, B 294.495339, C 175.597246} 
$VEL.CP=0.242948
LIN {X 1582.746168, Y -531.193216, Z 1232.304140, A 353.427667, B 294.619002, C 182.795597} 
$VEL.CP=0.214370
LIN {X 1592.803116, Y -524.017482, Z 1262.230326, A 352.084670, B 295.263045, C 185.039104} 
$VEL.CP=0.344204
LIN {X 1602.334090, Y -527.134112, Z 1294.671480, A 353.433842, B 297.287784, C 183.768203} 
$VEL.CP=0.510896
LIN {X 1611.006020, Y -544.498018, Z 1319.574468, A 356.587581, B 299.565871, C 180.416870} 
$VEL.CP=0.656526
LIN {X 1619.493100, Y -578.478100, Z 1327.583556, A 0.857915, B 300.694194, C 175.751474} 
$VEL.CP=0.580423
LIN {X 1622.580646, Y -618.140014, Z 1312.129392, A 5.559743, B 300.115582, C 169.369661} 
$VEL.CP=0.420088
LIN {X 1616.398910, Y -676.839790, Z 1254.644480, A 8.763691, B 296.763101, C 163.912529} 
$VEL.CP=0.523905
LIN {X 1594.845112, Y -742.583194, Z 1120.126964, A 13.419176, B 284.019343, C 159.018729} 
$VEL.CP=0.567375
LIN {X 1595.137226, Y -790.788254, Z 1045.284934, A 37.692926, B 278.562515, C 136.727924} 
$VEL.CP=0.797153
LIN {X 1608.654156, Y -852.568382, Z 993.124074, A 85.398327, B 275.948748, C 94.751476} 
$VEL.CP=0.282711
LIN {X 1622.799544, Y -906.769406, Z 981.060158, A 110.770893, B 278.661616, C 73.135025} 
$VEL.CP=0.476961
LIN {X 1640.397372, Y -948.089658, Z 982.838400, A 163.165659, B 281.683548, C 27.690385} 
$VEL.CP=0.782007
LIN {X 1590.613570, Y -866.711450, Z 982.258374, A 168.397628, B 276.718954, C 18.149853} 
$VEL.CP=0.828202
LIN {X 1540.888630, Y -779.077710, Z 994.420444, A 236.617252, B 273.525061, C 306.160501} 
$VEL.CP=0.721904
LIN {X 1507.194898, Y -713.118530, Z 1029.448864, A 292.831275, B 277.045995, C 246.948973} 
$VEL.CP=0.578299
LIN {X 1492.073494, Y -665.839294, Z 1074.264308, A 304.110091, B 282.134456, C 234.015772} 
$VEL.CP=0.199292
LIN {X 1488.172732, Y -632.929368, Z 1127.098868, A 311.507944, B 287.244385, C 226.415182} 
$VEL.CP=0.431951
LIN {X 1488.264906, Y -629.482984, Z 1170.802424, A 322.478725, B 290.114542, C 214.826773} 
$VEL.CP=0.598335
LIN {X 1496.584356, Y -656.358154, Z 1219.215260, A 342.991446, B 293.783904, C 193.942830} 
$VEL.CP=0.450918
LIN {X 1507.352752, Y -690.192402, Z 1233.266648, A 355.735785, B 296.136907, C 180.635510} 
$VEL.CP=0.400173
LIN {X 1514.010214, Y -731.155294, Z 1195.600906, A 8.961969, B 293.888536, C 166.323967} 
$VEL.CP=0.070615
LIN {X 1513.996564, Y -769.169096, Z 1121.638322, A 26.527291, B 291.162228, C 146.786961} 
$VEL.CP=0.033624
LIN {X 1511.849896, Y -776.987608, Z 1084.780096, A 32.976088, B 289.659089, C 139.634730} 
$VEL.CP=0.332224
LIN {X 1502.206268, Y -774.734536, Z 1037.710682, A 34.451022, B 286.867367, C 138.100295} 
$VEL.CP=0.428718
LIN {X 1490.286766, Y -761.843476, Z 1021.548788, A 23.015537, B 285.807362, C 149.889302} 
$VEL.CP=0.368831
LIN {X 1478.710556, Y -749.269040, Z 1022.525650, A 11.278161, B 286.604326, C 161.346750} 
$VEL.CP=0.328902
LIN {X 1464.175966, Y -739.402618, Z 1038.270878, A 4.220558, B 289.515869, C 168.587916} 
$VEL.CP=0.182389
LIN {X 1450.479772, Y -727.958012, Z 1073.705172, A 358.806203, B 294.277194, C 175.108155} 
$VEL.CP=0.145093
LIN {X 1442.372516, Y -717.656128, Z 1150.796858, A 355.224448, B 303.101334, C 179.458111} 
$VEL.CP=0.190758
LIN {X 1452.983408, Y -723.672928, Z 1254.289218, A 355.311693, B 312.547161, C 178.861291} 
$VEL.CP=0.267157
LIN {X 1450.245478, Y -719.451372, Z 1270.741240, A 353.545172, B 311.761389, C 180.544035} 
$VEL.CP=0.264612
LIN {X 1441.256564, Y -713.980350, Z 1272.473684, A 351.342245, B 308.046950, C 182.214171} 
$VEL.CP=0.196441
LIN {X 1425.207346, Y -720.494044, Z 1248.507016, A 352.532689, B 299.630485, C 180.384521} 
$VEL.CP=0.287957
LIN {X 1418.937898, Y -731.403782, Z 1217.578262, A 354.940427, B 293.254239, C 178.854043} 
$VEL.CP=0.602228
LIN {X 1418.235422, Y -760.189030, Z 1131.438336, A 359.761728, B 281.765878, C 176.961176} 
$VEL.CP=0.524000
LIN {X 1425.416536, Y -791.490956, Z 1069.097090, A 27.070864, B 275.348593, C 150.973874} 
$VEL.CP=0.851484
LIN {X 1430.313520, Y -792.090588, Z 1070.655942, A 15.829519, B 275.647592, C 163.123873} 
$VEL.CP=1.265010
LIN {X 1455.678800, Y -856.462682, Z 997.149534, A 104.470599, B 275.047566, C 78.176510} 
$VEL.CP=1.412135
LIN {X 1479.631972, Y -915.576470, Z 963.366756, A 115.012560, B 280.306739, C 71.093644} 
$VEL.CP=1.352720
LIN {X 1506.064482, Y -965.769516, Z 949.657502, A 111.143687, B 285.141652, C 77.356681} 
$VEL.CP=1.199788
LIN {X 1566.036454, Y -1037.491354, Z 935.289838, A 109.887142, B 293.582495, C 82.074905} 
$VEL.CP=0.723237
LIN {X 1593.748434, Y -1060.430628, Z 935.979642, A 108.766704, B 296.731147, C 84.253195} 
$VEL.CP=0.422468
LIN {X 1628.217328, Y -1071.581586, Z 933.597042, A 111.085878, B 298.492208, C 82.739327} 
$VEL.CP=0.419118
LIN {X 1682.072984, Y -1047.551342, Z 943.747008, A 110.770230, B 300.851534, C 79.967931} 
$VEL.CP=0.239563
LIN {X 1730.618528, Y -964.832298, Z 950.070754, A 138.006384, B 293.061196, C 54.093361} 
LIN {X 1761.440400, Y -968.230822, Z 954.248532, A 141.690785, B 293.254385, C 50.506328} 
$VEL.CP=0.000000
END