DEF output\path_03.src
PTP $POS_ACT
$VEL.CP=0.336170
LIN {X 1449.744686, Y 38.908888, Z 1135.591066, A 304.905386, B 288.518066, C 224.451120} 
$VEL.CP=0.185096
LIN {X 1471.713502, Y 85.599154, Z 1232.789340, A 303.705869, B 290.403042, C 225.742582} 
$VEL.CP=0.235940
LIN {X 1480.329906, Y 87.015728, Z 1256.333540, A 306.138688, B 289.858149, C 223.405727} 
$VEL.CP=0.329340
LIN {X 1494.182128, Y 76.247278, Z 1280.548330, A 311.194552, B 288.997195, C 218.820965} 
$VEL.CP=0.453088
LIN {X 1505.160110, Y 60.459222, Z 1290.895462, A 312.998211, B 288.280857, C 218.133410} 
$VEL.CP=0.616038
LIN {X 1519.009452, Y 22.772020, Z 1297.878682, A 315.984196, B 287.538220, C 216.329661} 
$VEL.CP=0.752154
LIN {X 1526.342012, Y -50.763858, Z 1299.651312, A 321.750834, B 287.825532, C 213.142081} 
$VEL.CP=0.753669
LIN {X 1520.447700, Y -118.339272, Z 1290.291564, A 326.536615, B 288.381798, C 208.202623} 
$VEL.CP=0.694494
LIN {X 1493.166436, Y -212.178440, Z 1241.442272, A 325.487955, B 287.573575, C 210.166668} 
$VEL.CP=0.600943
LIN {X 1465.543046, Y -306.370282, Z 1150.622666, A 317.971539, B 282.779031, C 218.709469} 
$VEL.CP=0.539882
LIN {X 1463.554212, Y -379.545236, Z 1071.511082, A 292.175937, B 279.391083, C 248.105084} 
$VEL.CP=0.796533
LIN {X 1470.735646, Y -405.593802, Z 1056.373354, A 279.335134, B 279.410066, C 263.356729} 
$VEL.CP=0.395571
LIN {X 1478.959944, Y -452.912396, Z 1045.067306, A 263.938110, B 277.439966, C 281.678545} 
$VEL.CP=0.418538
LIN {X 1488.299796, Y -527.498010, Z 1044.343966, A 228.440540, B 276.595834, C 322.273806} 
$VEL.CP=0.792366
LIN {X 1461.423272, Y -471.136960, Z 1039.408002, A 265.095000, B 275.317782, C 282.031718} 
$VEL.CP=0.890942
LIN {X 1442.114602, Y -402.584398, Z 1046.036042, A 288.421868, B 278.282741, C 255.129642} 
$VEL.CP=0.920685
LIN {X 1439.002078, Y -393.673094, Z 1041.175122, A 288.594357, B 278.334908, C 254.621461} 
$VEL.CP=0.837694
LIN {X 1431.865084, Y -348.481870, Z 1054.158732, A 291.922744, B 280.643920, C 249.365346} 
$VEL.CP=0.642634
LIN {X 1423.760314, Y -265.566260, Z 1092.467924, A 297.832525, B 285.471633, C 239.778974} 
$VEL.CP=0.254056
LIN {X 1426.162438, Y -177.213908, Z 1176.087864, A 301.822231, B 292.674442, C 233.131789} 
$VEL.CP=0.251085
LIN {X 1433.792308, Y -155.890362, Z 1242.355146, A 308.556189, B 296.301635, C 225.753359} 
$VEL.CP=0.414230
LIN {X 1440.876394, Y -165.801738, Z 1281.624580, A 315.663863, B 297.945920, C 218.803849} 
$VEL.CP=0.470492
LIN {X 1446.728872, Y -179.953138, Z 1301.636778, A 320.321210, B 298.693032, C 214.379999} 
$VEL.CP=0.623404
LIN {X 1455.107402, Y -200.685874, Z 1317.359888, A 325.687200, B 299.320479, C 209.772056} 
$VEL.CP=0.652408
LIN {X 1464.606506, Y -230.134692, Z 1324.418738, A 330.923562, B 299.932458, C 205.539809} 
$VEL.CP=0.684935
LIN {X 1472.924746, Y -261.911484, Z 1316.983560, A 335.836748, B 299.681024, C 201.340469} 
$VEL.CP=0.631105
LIN {X 1477.939650, Y -289.469318, Z 1300.000596, A 339.376730, B 298.679048, C 198.333133} 
$VEL.CP=0.427395
LIN {X 1486.549546, Y -353.142866, Z 1227.246274, A 347.770777, B 294.402809, C 189.864855} 
$VEL.CP=0.192270
LIN {X 1489.058106, Y -389.325636, Z 1154.034746, A 354.222568, B 290.213429, C 181.997882} 
$VEL.CP=0.041607
LIN {X 1486.471668, Y -414.180972, Z 1061.402286, A 4.068224, B 285.640286, C 170.908633} 
$VEL.CP=0.322647
LIN {X 1479.834124, Y -408.041148, Z 1010.051496, A 3.861284, B 282.714848, C 170.772119} 
$VEL.CP=0.521280
LIN {X 1472.437798, Y -386.841438, Z 1013.032838, A 354.723444, B 283.232543, C 178.989038} 
$VEL.CP=0.461730
LIN {X 1459.197004, Y -332.726568, Z 1075.395372, A 339.516248, B 287.829151, C 193.179528} 
$VEL.CP=0.282652
LIN {X 1459.100702, Y -274.788874, Z 1198.497324, A 333.884581, B 295.342665, C 197.214035} 
$VEL.CP=0.308345
LIN {X 1471.411994, Y -264.328898, Z 1263.744272, A 335.115363, B 300.241579, C 195.038001} 
$VEL.CP=0.480327
LIN {X 1482.928380, Y -270.359562, Z 1298.092382, A 336.451220, B 303.124118, C 192.592976} 
$VEL.CP=0.625603
LIN {X 1495.809192, Y -289.514984, Z 1320.061646, A 339.367483, B 305.451878, C 189.079345} 
$VEL.CP=0.605552
LIN {X 1510.236724, Y -330.133178, Z 1322.744470, A 343.951821, B 307.015667, C 183.825498} 
$VEL.CP=0.620660
LIN {X 1515.663986, Y -366.677632, Z 1300.315888, A 346.090516, B 305.801499, C 182.173382} 
$VEL.CP=0.647512
LIN {X 1514.456800, Y -398.778366, Z 1265.883300, A 348.670905, B 303.062268, C 180.422307} 
$VEL.CP=0.757803
LIN {X 1502.796094, Y -496.553884, Z 1134.679930, A 355.063807, B 292.615271, C 178.171908} 
$VEL.CP=0.864028
LIN {X 1500.012148, Y -557.448094, Z 1068.745182, A 2.529858, B 285.762679, C 174.927076} 
$VEL.CP=0.608368
LIN {X 1508.689866, Y -652.810196, Z 1000.730662, A 22.783046, B 277.581270, C 160.978368} 
$VEL.CP=0.228680
LIN {X 1519.744462, Y -706.994020, Z 970.634020, A 61.982318, B 272.676576, C 127.140675} 
$VEL.CP=0.361997
LIN {X 1514.360064, Y -721.393196, Z 946.600522, A 182.285075, B 271.161708, C 8.511814} 
$VEL.CP=0.762663
LIN {X 1495.453674, Y -704.535556, Z 937.727890, A 273.907569, B 273.379392, C 276.514497} 
$VEL.CP=0.910582
LIN {X 1466.475192, Y -651.128166, Z 952.976476, A 306.231576, B 277.383002, C 240.175354} 
$VEL.CP=0.847778
LIN {X 1440.638258, Y -573.975372, Z 1001.023050, A 316.324936, B 283.856787, C 225.343971} 
$VEL.CP=0.445580
LIN {X 1429.556252, Y -516.568692, Z 1052.737638, A 314.823695, B 288.772307, C 222.599981} 
$VEL.CP=0.246741
LIN {X 1428.548128, Y -474.097640, Z 1123.286290, A 321.244718, B 294.137377, C 209.578424} 
$VEL.CP=0.466396
LIN {X 1436.293380, Y -474.307842, Z 1141.974770, A 326.181761, B 295.011301, C 202.971721} 
$VEL.CP=0.581570
LIN {X 1444.987494, Y -484.385522, Z 1151.286530, A 332.611162, B 294.845950, C 196.164772} 
$VEL.CP=0.489256
LIN {X 1500.445130, Y -526.359368, Z 1167.820340, A 351.051044, B 294.822256, C 178.283433} 
$VEL.CP=0.319037
LIN {X 1551.253848, Y -542.771974, Z 1190.568816, A 357.276225, B 294.646396, C 175.286131} 
$VEL.CP=0.242948
LIN {X 1582.746168, Y -531.193216, Z 1232.304140, A 354.072506, B 294.514484, C 182.018084} 
$VEL.CP=0.214370
LIN {X 1592.803116, Y -524.017482, Z 1262.230326, A 352.102991, B 295.098239, C 184.931805} 
$VEL.CP=0.344204
LIN {X 1602.334090, Y -527.134112, Z 1294.671480, A 353.143485, B 296.909028, C 184.100902} 
$VEL.CP=0.510896
LIN {X 1611.006020, Y -544.498018, Z 1319.574468, A 356.077514, B 299.199530, C 180.936163} 
$VEL.CP=0.656526
LIN {X 1619.493100, Y -578.478100, Z 1327.583556, A 0.197522, B 300.583619, C 176.624202} 
$VEL.CP=0.580423
LIN {X 1622.580646, Y -618.140014, Z 1312.129392, A 4.918699, B 300.386888, C 170.320467} 
$VEL.CP=0.420088
LIN {X 1616.398910, Y -676.839790, Z 1254.644480, A 8.378522, B 297.053088, C 164.495629} 
$VEL.CP=0.523905
LIN {X 1594.845112, Y -742.583194, Z 1120.126964, A 12.703527, B 284.897451, C 159.655820} 
$VEL.CP=0.567375
LIN {X 1595.137226, Y -790.788254, Z 1045.284934, A 32.773484, B 278.916496, C 141.388401} 
$VEL.CP=0.797153
LIN {X 1608.654156, Y -852.568382, Z 993.124074, A 78.390675, B 275.797680, C 101.204015} 
$VEL.CP=0.282711
LIN {X 1622.799544, Y -906.769406, Z 981.060158, A 107.216166, B 278.026864, C 76.044564} 
$VEL.CP=0.476961
LIN {X 1640.397372, Y -948.089658, Z 982.838400, A 162.141560, B 281.497283, C 28.585057} 
$VEL.CP=0.782007
LIN {X 1590.613570, Y -866.711450, Z 982.258374, A 167.051478, B 277.155809, C 19.795303} 
$VEL.CP=0.828202
LIN {X 1540.888630, Y -779.077710, Z 994.420444, A 224.802861, B 273.291110, C 318.272501} 
$VEL.CP=0.721904
LIN {X 1507.194898, Y -713.118530, Z 1029.448864, A 292.861477, B 276.366228, C 247.191391} 
$VEL.CP=0.578299
LIN {X 1492.073494, Y -665.839294, Z 1074.264308, A 303.587517, B 281.468057, C 234.710057} 
$VEL.CP=0.199292
LIN {X 1488.172732, Y -632.929368, Z 1127.098868, A 310.151033, B 286.318494, C 227.932955} 
$VEL.CP=0.431951
LIN {X 1488.264906, Y -629.482984, Z 1170.802424, A 320.108065, B 289.449777, C 217.233795} 
$VEL.CP=0.598335
LIN {X 1496.584356, Y -656.358154, Z 1219.215260, A 340.239702, B 293.202268, C 196.755338} 
$VEL.CP=0.450918
LIN {X 1507.352752, Y -690.192402, Z 1233.266648, A 354.433191, B 295.905660, C 182.132831} 
$VEL.CP=0.400173
LIN {X 1514.010214, Y -731.155294, Z 1195.600906, A 7.438223, B 294.011566, C 167.972582} 
$VEL.CP=0.070615
LIN {X 1513.996564, Y -769.169096, Z 1121.638322, A 23.172775, B 291.312439, C 150.399550} 
$VEL.CP=0.033624
LIN {X 1511.849896, Y -776.987608, Z 1084.780096, A 31.477560, B 290.031869, C 141.172930} 
$VEL.CP=0.332224
LIN {X 1502.206268, Y -774.734536, Z 1037.710682, A 34.825541, B 287.269624, C 137.705515} 
$VEL.CP=0.428718
LIN {X 1490.286766, Y -761.843476, Z 1021.548788, A 25.445116, B 285.807196, C 147.386440} 
$VEL.CP=0.368831
LIN {X 1478.710556, Y -749.269040, Z 1022.525650, A 14.056770, B 286.237497, C 158.685404} 
$VEL.CP=0.328902
LIN {X 1464.175966, Y -739.402618, Z 1038.270878, A 4.973233, B 289.050737, C 167.713612} 
$VEL.CP=0.182389
LIN {X 1450.479772, Y -727.958012, Z 1073.705172, A 359.499966, B 293.485589, C 174.205714} 
$VEL.CP=0.145093
LIN {X 1442.372516, Y -717.656128, Z 1150.796858, A 355.134387, B 302.333970, C 179.510614} 
$VEL.CP=0.190758
LIN {X 1452.983408, Y -723.672928, Z 1254.289218, A 355.828759, B 312.143590, C 178.435046} 
$VEL.CP=0.267157
LIN {X 1450.245478, Y -719.451372, Z 1270.741240, A 353.917702, B 312.192442, C 180.147957} 
$VEL.CP=0.264612
LIN {X 1441.256564, Y -713.980350, Z 1272.473684, A 351.748833, B 309.089531, C 181.953853} 
$VEL.CP=0.196441
LIN {X 1425.207346, Y -720.494044, Z 1248.507016, A 351.908930, B 301.090515, C 180.982928} 
$VEL.CP=0.287957
LIN {X 1418.937898, Y -731.403782, Z 1217.578262, A 354.927479, B 294.427257, C 178.760247} 
$VEL.CP=0.602228
LIN {X 1418.235422, Y -760.189030, Z 1131.438336, A 359.290210, B 283.296051, C 177.114704} 
$VEL.CP=0.524000
LIN {X 1425.416536, Y -791.490956, Z 1069.097090, A 18.793693, B 276.145510, C 158.918429} 
$VEL.CP=0.851484
LIN {X 1430.313520, Y -792.090588, Z 1070.655942, A 20.692030, B 275.688844, C 157.558261} 
$VEL.CP=1.265010
LIN {X 1455.678800, Y -856.462682, Z 997.149534, A 95.097548, B 274.557872, C 86.932740} 
$VEL.CP=1.412135
LIN {X 1479.631972, Y -915.576470, Z 963.366756, A 113.665181, B 278.764182, C 71.771513} 
$VEL.CP=1.352720
LIN {X 1506.064482, Y -965.769516, Z 949.657502, A 111.653013, B 283.810844, C 76.265629} 
$VEL.CP=1.199788
LIN {X 1566.036454, Y -1037.491354, Z 935.289838, A 110.380857, B 292.280510, C 81.149877} 
$VEL.CP=0.723237
LIN {X 1593.748434, Y -1060.430628, Z 935.979642, A 109.079934, B 295.753787, C 83.650115} 
$VEL.CP=0.422468
LIN {X 1628.217328, Y -1071.581586, Z 933.597042, A 110.814372, B 298.404268, C 82.958604} 
$VEL.CP=0.419118
LIN {X 1682.072984, Y -1047.551342, Z 943.747008, A 111.062294, B 300.724080, C 80.297762} 
$VEL.CP=0.239563
LIN {X 1730.618528, Y -964.832298, Z 950.070754, A 136.727012, B 293.489116, C 55.199478} 
LIN {X 1761.440400, Y -968.230822, Z 954.248532, A 141.545711, B 293.014740, C 50.674018} 
$VEL.CP=0.000000
END