DEF output\path_01.src
PTP $POS_ACT
$VEL.CP=0.132742
LIN {X 1021.710788, Y -547.198540, Z 632.801115, A 262.395350, B 9.465808, C 185.728933} 
$VEL.CP=0.212571
LIN {X 1028.455225, Y -448.114545, Z 630.559000, A 253.317547, B 8.763253, C 184.306311} 
$VEL.CP=0.218649
LIN {X 1008.071517, Y -309.711407, Z 627.129308, A 245.599555, B 8.237748, C 184.092468} 
$VEL.CP=0.217616
LIN {X 1010.593631, Y -233.409291, Z 624.439792, A 241.024613, B 10.332018, C 179.601751} 
$VEL.CP=0.200335
LIN {X 1000.153749, Y -151.582728, Z 623.322174, A 236.546458, B 11.055689, C 179.386423} 
$VEL.CP=0.156706
LIN {X 999.351354, Y -55.783552, Z 619.259534, A 227.546872, B 10.058756, C 179.032484} 
$VEL.CP=0.120944
LIN {X 1005.855893, Y 19.132937, Z 609.030817, A 221.691942, B 10.518850, C 177.059371} 
$VEL.CP=0.111455
LIN {X 1006.183343, Y 48.474911, Z 596.267169, A 219.422245, B 12.228151, C 176.095424} 
$VEL.CP=0.086397
LIN {X 1011.520399, Y 67.982320, Z 592.994234, A 216.873560, B 12.519507, C 175.214440} 
$VEL.CP=0.153604
LIN {X 1029.333058, Y 82.030846, Z 605.736311, A 213.183461, B 12.771300, C 175.354666} 
$VEL.CP=0.166888
LIN {X 1096.668183, Y 52.690319, Z 615.026701, A 210.926647, B 8.910939, C 176.042530} 
$VEL.CP=0.057003
LIN {X 1191.880160, Y -5.178268, Z 621.994438, A 206.555709, B 8.067637, C 174.565176} 
$VEL.CP=0.174932
LIN {X 1269.418366, Y -74.426602, Z 623.568044, A 206.565826, B 7.045182, C 175.871561} 
$VEL.CP=0.220108
LIN {X 1380.890103, Y -132.321911, Z 622.520010, A 209.260149, B 5.718037, C 174.284812} 
$VEL.CP=0.203384
LIN {X 1486.374525, Y -218.228409, Z 620.690834, A 214.209189, B 3.014576, C 177.720285} 
$VEL.CP=0.179949
LIN {X 1507.817686, Y -259.784637, Z 621.433983, A 218.207302, B 3.486709, C 178.444730} 
$VEL.CP=0.153027
LIN {X 1520.219980, Y -323.154780, Z 623.333721, A 222.705312, B 4.644439, C 179.691766} 
$VEL.CP=0.113847
LIN {X 1506.266488, Y -429.020841, Z 626.639235, A 230.825772, B 5.446485, C 181.592481} 
$VEL.CP=0.123182
LIN {X 1515.983067, Y -496.368219, Z 629.055899, A 235.007440, B 7.381362, C 179.278550} 
$VEL.CP=0.134062
LIN {X 1505.610288, Y -531.667493, Z 630.519801, A 236.488197, B 6.120452, C 181.446695} 
$VEL.CP=0.151389
LIN {X 1480.215680, Y -572.516178, Z 631.937702, A 239.604124, B 7.450292, C 180.969308} 
$VEL.CP=0.242893
LIN {X 1425.387086, Y -589.399834, Z 632.339338, A 242.001294, B 8.843438, C 181.787739} 
$VEL.CP=0.055261
LIN {X 1210.192930, Y -578.834746, Z 630.832228, A 248.416987, B 11.297479, C 184.323385} 
LIN {X 1033.365021, Y -554.171979, Z 632.421231, A 264.820104, B 10.577539, C 189.121453} 
$VEL.CP=0.000000
END