DEF output\path_03.src
PTP $POS_ACT
$VEL.CP=0.336170
LIN {X 1449.744686, Y 38.908888, Z 1135.591066, A 304.905386, B 288.518066, C 224.451120} 
$VEL.CP=0.185096
LIN {X 1471.713502, Y 85.599154, Z 1232.789340, A 303.763113, B 290.314182, C 225.657755} 
$VEL.CP=0.235940
LIN {X 1480.329906, Y 87.015728, Z 1256.333540, A 305.567196, B 290.014361, C 224.043140} 
$VEL.CP=0.329340
LIN {X 1494.182128, Y 76.247278, Z 1280.548330, A 310.880905, B 289.085755, C 219.037217} 
$VEL.CP=0.453088
LIN {X 1505.160110, Y 60.459222, Z 1290.895462, A 312.410441, B 288.411861, C 218.462730} 
$VEL.CP=0.616038
LIN {X 1519.009452, Y 22.772020, Z 1297.878682, A 315.678044, B 287.553634, C 216.491088} 
$VEL.CP=0.752154
LIN {X 1526.342012, Y -50.763858, Z 1299.651312, A 320.935271, B 287.809388, C 213.805389} 
$VEL.CP=0.753669
LIN {X 1520.447700, Y -118.339272, Z 1290.291564, A 325.618978, B 288.237071, C 209.232542} 
$VEL.CP=0.694494
LIN {X 1493.166436, Y -212.178440, Z 1241.442272, A 325.189750, B 287.727674, C 210.403479} 
$VEL.CP=0.600943
LIN {X 1465.543046, Y -306.370282, Z 1150.622666, A 318.090459, B 283.021918, C 218.534720} 
$VEL.CP=0.539882
LIN {X 1463.554212, Y -379.545236, Z 1071.511082, A 294.974706, B 279.628441, C 244.962414} 
$VEL.CP=0.796533
LIN {X 1470.735646, Y -405.593802, Z 1056.373354, A 281.481329, B 279.576153, C 260.802549} 
$VEL.CP=0.395571
LIN {X 1478.959944, Y -452.912396, Z 1045.067306, A 267.015571, B 277.637041, C 278.141951} 
$VEL.CP=0.418538
LIN {X 1488.299796, Y -527.498010, Z 1044.343966, A 227.972543, B 276.571073, C 322.751337} 
$VEL.CP=0.792366
LIN {X 1461.423272, Y -471.136960, Z 1039.408002, A 261.054978, B 275.321182, C 286.480927} 
$VEL.CP=0.890942
LIN {X 1442.114602, Y -402.584398, Z 1046.036042, A 287.872382, B 277.923330, C 256.061289} 
$VEL.CP=0.920685
LIN {X 1439.002078, Y -393.673094, Z 1041.175122, A 287.964340, B 278.152135, C 255.610414} 
$VEL.CP=0.837694
LIN {X 1431.865084, Y -348.481870, Z 1054.158732, A 291.099227, B 280.175205, C 250.607659} 
$VEL.CP=0.642634
LIN {X 1423.760314, Y -265.566260, Z 1092.467924, A 297.709627, B 285.108583, C 240.323546} 
$VEL.CP=0.254056
LIN {X 1426.162438, Y -177.213908, Z 1176.087864, A 301.771140, B 292.153164, C 233.287253} 
$VEL.CP=0.251085
LIN {X 1433.792308, Y -155.890362, Z 1242.355146, A 307.674915, B 296.041185, C 226.554095} 
$VEL.CP=0.414230
LIN {X 1440.876394, Y -165.801738, Z 1281.624580, A 314.631082, B 297.705672, C 219.856604} 
$VEL.CP=0.470492
LIN {X 1446.728872, Y -179.953138, Z 1301.636778, A 319.043400, B 298.519650, C 215.564419} 
$VEL.CP=0.623404
LIN {X 1455.107402, Y -200.685874, Z 1317.359888, A 324.761472, B 299.195580, C 210.518973} 
$VEL.CP=0.652408
LIN {X 1464.606506, Y -230.134692, Z 1324.418738, A 329.772709, B 299.804535, C 206.495067} 
$VEL.CP=0.684935
LIN {X 1472.924746, Y -261.911484, Z 1316.983560, A 334.957065, B 299.776440, C 202.103598} 
$VEL.CP=0.631105
LIN {X 1477.939650, Y -289.469318, Z 1300.000596, A 338.486095, B 298.977636, C 199.093414} 
$VEL.CP=0.427395
LIN {X 1486.549546, Y -353.142866, Z 1227.246274, A 347.169130, B 294.800129, C 190.629552} 
$VEL.CP=0.192270
LIN {X 1489.058106, Y -389.325636, Z 1154.034746, A 353.021277, B 290.690730, C 183.376759} 
$VEL.CP=0.041607
LIN {X 1486.471668, Y -414.180972, Z 1061.402286, A 3.309179, B 286.073304, C 171.829159} 
$VEL.CP=0.322647
LIN {X 1479.834124, Y -408.041148, Z 1010.051496, A 4.244568, B 282.896330, C 170.428822} 
$VEL.CP=0.521280
LIN {X 1472.437798, Y -386.841438, Z 1013.032838, A 356.234412, B 283.029149, C 177.625132} 
$VEL.CP=0.461730
LIN {X 1459.197004, Y -332.726568, Z 1075.395372, A 341.030870, B 287.375710, C 191.704376} 
$VEL.CP=0.282652
LIN {X 1459.100702, Y -274.788874, Z 1198.497324, A 334.227691, B 294.715175, C 197.005779} 
$VEL.CP=0.308345
LIN {X 1471.411994, Y -264.328898, Z 1263.744272, A 334.997015, B 299.571802, C 195.320020} 
$VEL.CP=0.480327
LIN {X 1482.928380, Y -270.359562, Z 1298.092382, A 336.115467, B 302.582214, C 193.151403} 
$VEL.CP=0.625603
LIN {X 1495.809192, Y -289.514984, Z 1320.061646, A 338.765846, B 305.022653, C 189.774332} 
$VEL.CP=0.605552
LIN {X 1510.236724, Y -330.133178, Z 1322.744470, A 343.415087, B 306.979179, C 184.374732} 
$VEL.CP=0.620660
LIN {X 1515.663986, Y -366.677632, Z 1300.315888, A 345.710536, B 306.078991, C 182.503133} 
$VEL.CP=0.647512
LIN {X 1514.456800, Y -398.778366, Z 1265.883300, A 348.167179, B 303.684948, C 180.736074} 
$VEL.CP=0.757803
LIN {X 1502.796094, Y -496.553884, Z 1134.679930, A 354.749061, B 293.463891, C 178.055561} 
$VEL.CP=0.864028
LIN {X 1500.012148, Y -557.448094, Z 1068.745182, A 1.308084, B 286.607594, C 175.486985} 
$VEL.CP=0.608368
LIN {X 1508.689866, Y -652.810196, Z 1000.730662, A 18.213777, B 278.327608, C 164.960048} 
$VEL.CP=0.228680
LIN {X 1519.744462, Y -706.994020, Z 970.634020, A 53.813203, B 273.302436, C 134.676781} 
$VEL.CP=0.361997
LIN {X 1514.360064, Y -721.393196, Z 946.600522, A 155.874801, B 271.003517, C 34.796870} 
$VEL.CP=0.762663
LIN {X 1495.453674, Y -704.535556, Z 937.727890, A 268.140112, B 272.949713, C 282.511814} 
$VEL.CP=0.910582
LIN {X 1466.475192, Y -651.128166, Z 952.976476, A 304.784249, B 276.741325, C 242.222822} 
$VEL.CP=0.847778
LIN {X 1440.638258, Y -573.975372, Z 1001.023050, A 315.311205, B 283.065778, C 226.801931} 
$VEL.CP=0.445580
LIN {X 1429.556252, Y -516.568692, Z 1052.737638, A 314.581627, B 288.084171, C 223.545393} 
$VEL.CP=0.246741
LIN {X 1428.548128, Y -474.097640, Z 1123.286290, A 320.526186, B 293.789368, C 211.013824} 
$VEL.CP=0.466396
LIN {X 1436.293380, Y -474.307842, Z 1141.974770, A 324.919042, B 294.837272, C 204.550340} 
$VEL.CP=0.581570
LIN {X 1444.987494, Y -484.385522, Z 1151.286530, A 330.316276, B 294.897394, C 198.546693} 
$VEL.CP=0.489256
LIN {X 1500.445130, Y -526.359368, Z 1167.820340, A 350.143185, B 294.835439, C 178.940377} 
$VEL.CP=0.319037
LIN {X 1551.253848, Y -542.771974, Z 1190.568816, A 357.260045, B 294.684597, C 175.025229} 
$VEL.CP=0.242948
LIN {X 1582.746168, Y -531.193216, Z 1232.304140, A 354.456078, B 294.423747, C 181.441501} 
$VEL.CP=0.214370
LIN {X 1592.803116, Y -524.017482, Z 1262.230326, A 352.329412, B 294.973763, C 184.578272} 
$VEL.CP=0.344204
LIN {X 1602.334090, Y -527.134112, Z 1294.671480, A 352.915914, B 296.576498, C 184.335065} 
$VEL.CP=0.510896
LIN {X 1611.006020, Y -544.498018, Z 1319.574468, A 355.508679, B 298.790421, C 181.532171} 
$VEL.CP=0.656526
LIN {X 1619.493100, Y -578.478100, Z 1327.583556, A 359.588674, B 300.480959, C 177.345522} 
$VEL.CP=0.580423
LIN {X 1622.580646, Y -618.140014, Z 1312.129392, A 4.169533, B 300.504952, C 171.366786} 
$VEL.CP=0.420088
LIN {X 1616.398910, Y -676.839790, Z 1254.644480, A 8.245572, B 297.400905, C 164.874094} 
$VEL.CP=0.523905
LIN {X 1594.845112, Y -742.583194, Z 1120.126964, A 12.090694, B 285.788578, C 160.197131} 
$VEL.CP=0.567375
LIN {X 1595.137226, Y -790.788254, Z 1045.284934, A 28.945484, B 279.419908, C 144.933466} 
$VEL.CP=0.797153
LIN {X 1608.654156, Y -852.568382, Z 993.124074, A 71.362997, B 275.793907, C 107.659504} 
$VEL.CP=0.282711
LIN {X 1622.799544, Y -906.769406, Z 981.060158, A 104.344227, B 277.545739, C 78.320652} 
$VEL.CP=0.476961
LIN {X 1640.397372, Y -948.089658, Z 982.838400, A 160.628122, B 281.321967, C 29.975470} 
$VEL.CP=0.782007
LIN {X 1590.613570, Y -866.711450, Z 982.258374, A 165.737600, B 277.573426, C 21.392817} 
$VEL.CP=0.828202
LIN {X 1540.888630, Y -779.077710, Z 994.420444, A 216.723903, B 273.234543, C 326.641800} 
$VEL.CP=0.721904
LIN {X 1507.194898, Y -713.118530, Z 1029.448864, A 289.231291, B 275.902832, C 251.173041} 
$VEL.CP=0.578299
LIN {X 1492.073494, Y -665.839294, Z 1074.264308, A 302.384728, B 280.664304, C 236.081975} 
$VEL.CP=0.199292
LIN {X 1488.172732, Y -632.929368, Z 1127.098868, A 308.747966, B 285.363229, C 229.230981} 
$VEL.CP=0.431951
LIN {X 1488.264906, Y -629.482984, Z 1170.802424, A 317.714991, B 288.942340, C 219.791742} 
$VEL.CP=0.598335
LIN {X 1496.584356, Y -656.358154, Z 1219.215260, A 337.281688, B 292.599896, C 199.687208} 
$VEL.CP=0.450918
LIN {X 1507.352752, Y -690.192402, Z 1233.266648, A 352.611822, B 295.620009, C 184.088029} 
$VEL.CP=0.400173
LIN {X 1514.010214, Y -731.155294, Z 1195.600906, A 5.748246, B 294.224100, C 169.783398} 
$VEL.CP=0.070615
LIN {X 1513.996564, Y -769.169096, Z 1121.638322, A 20.870152, B 291.571968, C 153.042943} 
$VEL.CP=0.033624
LIN {X 1511.849896, Y -776.987608, Z 1084.780096, A 29.877893, B 290.403442, C 142.993418} 
$VEL.CP=0.332224
LIN {X 1502.206268, Y -774.734536, Z 1037.710682, A 34.907426, B 287.707779, C 137.627650} 
$VEL.CP=0.428718
LIN {X 1490.286766, Y -761.843476, Z 1021.548788, A 27.611098, B 285.990310, C 145.134843} 
$VEL.CP=0.368831
LIN {X 1478.710556, Y -749.269040, Z 1022.525650, A 16.949345, B 286.012580, C 155.851644} 
$VEL.CP=0.328902
LIN {X 1464.175966, Y -739.402618, Z 1038.270878, A 6.124207, B 288.453211, C 166.495066} 
$VEL.CP=0.182389
LIN {X 1450.479772, Y -727.958012, Z 1073.705172, A 0.428337, B 292.638223, C 173.102440} 
$VEL.CP=0.145093
LIN {X 1442.372516, Y -717.656128, Z 1150.796858, A 355.437684, B 301.420689, C 179.171209} 
$VEL.CP=0.190758
LIN {X 1452.983408, Y -723.672928, Z 1254.289218, A 356.201806, B 311.593942, C 178.117677} 
$VEL.CP=0.267157
LIN {X 1450.245478, Y -719.451372, Z 1270.741240, A 354.404215, B 312.338062, C 179.699143} 
$VEL.CP=0.264612
LIN {X 1441.256564, Y -713.980350, Z 1272.473684, A 352.339396, B 310.021944, C 181.498350} 
$VEL.CP=0.196441
LIN {X 1425.207346, Y -720.494044, Z 1248.507016, A 351.500077, B 302.479983, C 181.388823} 
$VEL.CP=0.287957
LIN {X 1418.937898, Y -731.403782, Z 1217.578262, A 354.567273, B 295.610359, C 178.956561} 
$VEL.CP=0.602228
LIN {X 1418.235422, Y -760.189030, Z 1131.438336, A 358.494085, B 284.672136, C 177.501753} 
$VEL.CP=0.524000
LIN {X 1425.416536, Y -791.490956, Z 1069.097090, A 10.781381, B 277.461048, C 166.691708} 
$VEL.CP=0.851484
LIN {X 1430.313520, Y -792.090588, Z 1070.655942, A 14.711673, B 276.526959, C 163.121190} 
$VEL.CP=1.265010
LIN {X 1455.678800, Y -856.462682, Z 997.149534, A 82.929433, B 274.111840, C 98.516645} 
$VEL.CP=1.412135
LIN {X 1479.631972, Y -915.576470, Z 963.366756, A 112.184975, B 277.840171, C 72.571453} 
$VEL.CP=1.352720
LIN {X 1506.064482, Y -965.769516, Z 949.657502, A 112.603208, B 282.707223, C 74.714527} 
$VEL.CP=1.199788
LIN {X 1566.036454, Y -1037.491354, Z 935.289838, A 110.827246, B 291.038200, C 80.259697} 
$VEL.CP=0.723237
LIN {X 1593.748434, Y -1060.430628, Z 935.979642, A 109.474105, B 294.625496, C 82.862776} 
$VEL.CP=0.422468
LIN {X 1628.217328, Y -1071.581586, Z 933.597042, A 110.404107, B 298.124659, C 83.239840} 
$VEL.CP=0.419118
LIN {X 1682.072984, Y -1047.551342, Z 943.747008, A 111.389155, B 300.491926, C 80.510304} 
$VEL.CP=0.239563
LIN {X 1730.618528, Y -964.832298, Z 950.070754, A 135.164784, B 293.829486, C 56.582503} 
LIN {X 1761.440400, Y -968.230822, Z 954.248532, A 141.477870, B 292.863104, C 50.751689} 
$VEL.CP=0.000000
END