DEF output\path_01.src
PTP $POS_ACT
$VEL.CP=0.132742
LIN {X 1021.710815, Y -547.198547, Z 632.801086, A 0.000000, B 180.000000, C 0.000000} 
$VEL.CP=0.212571
LIN {X 1028.455200, Y -448.114532, Z 630.559021, A 0.000000, B 180.000000, C 0.000000} 
$VEL.CP=0.218649
LIN {X 1008.071533, Y -309.711395, Z 627.129333, A 0.000000, B 180.000000, C 0.000000} 
$VEL.CP=0.217616
LIN {X 1010.593628, Y -233.409286, Z 624.439819, A 0.000000, B 180.000000, C 0.000000} 
$VEL.CP=0.200335
LIN {X 1000.153748, Y -151.582733, Z 623.322144, A 0.000000, B 180.000000, C 0.000000} 
$VEL.CP=0.156706
LIN {X 999.351379, Y -55.783550, Z 619.259521, A 0.000000, B 180.000000, C 0.000000} 
$VEL.CP=0.120944
LIN {X 1005.855896, Y 19.132936, Z 609.030823, A 0.000000, B 180.000000, C 0.000000} 
$VEL.CP=0.111455
LIN {X 1006.183350, Y 48.474911, Z 596.267151, A 0.000000, B 180.000000, C 0.000000} 
$VEL.CP=0.086397
LIN {X 1011.520386, Y 67.982323, Z 592.994263, A 0.000000, B 180.000000, C 0.000000} 
$VEL.CP=0.153604
LIN {X 1029.333008, Y 82.030846, Z 605.736328, A 0.000000, B 180.000000, C 0.000000} 
$VEL.CP=0.166888
LIN {X 1096.668213, Y 52.690319, Z 615.026672, A 0.000000, B 180.000000, C 0.000000} 
$VEL.CP=0.057003
LIN {X 1191.880127, Y -5.178268, Z 621.994446, A 0.000000, B 180.000000, C 0.000000} 
$VEL.CP=0.174932
LIN {X 1269.418335, Y -74.426605, Z 623.568054, A 0.000000, B 180.000000, C 0.000000} 
$VEL.CP=0.220108
LIN {X 1380.890137, Y -132.321915, Z 622.520020, A 0.000000, B 180.000000, C 0.000000} 
$VEL.CP=0.203861
LIN {X 1486.374512, Y -218.228409, Z 620.690857, A 0.000000, B 180.000000, C 0.000000} 
$VEL.CP=0.180341
LIN {X 1507.219238, Y -257.920227, Z 621.451538, A 0.000000, B 180.000000, C 0.000000} 
$VEL.CP=0.153027
LIN {X 1520.219971, Y -323.154785, Z 623.333740, A 0.000000, B 180.000000, C 0.000000} 
$VEL.CP=0.113847
LIN {X 1506.266479, Y -429.020844, Z 626.639221, A 0.000000, B 180.000000, C 0.000000} 
$VEL.CP=0.123182
LIN {X 1515.983032, Y -496.368225, Z 629.055908, A 0.000000, B 180.000000, C 0.000000} 
$VEL.CP=0.134062
LIN {X 1505.610229, Y -531.667480, Z 630.519775, A 0.000000, B 180.000000, C 0.000000} 
$VEL.CP=0.151389
LIN {X 1480.215698, Y -572.516174, Z 631.937683, A 0.000000, B 180.000000, C 0.000000} 
$VEL.CP=0.242893
LIN {X 1425.387085, Y -589.399841, Z 632.339355, A 0.000000, B 180.000000, C 0.000000} 
$VEL.CP=0.055261
LIN {X 1210.192871, Y -578.834717, Z 630.832214, A 0.000000, B 180.000000, C 0.000000} 
LIN {X 1033.364990, Y -554.171997, Z 632.421204, A 0.000000, B 180.000000, C 0.000000} 
$VEL.CP=0.000000
END