DEF output\path_02.src
PTP $POS_ACT
$VEL.CP=0.014732
LIN {X 1275.369751, Y 181.575760, Z 855.044067, A 0.000000, B 180.000000, C 0.000000} 
$VEL.CP=0.040643
LIN {X 1290.370239, Y 184.088333, Z 855.624878, A 0.000000, B 180.000000, C 0.000000} 
$VEL.CP=0.047216
LIN {X 1294.253540, Y 192.789017, Z 855.845215, A 0.000000, B 180.000000, C 0.000000} 
$VEL.CP=0.055398
LIN {X 1269.050415, Y 210.044067, Z 858.885010, A 0.000000, B 180.000000, C 0.000000} 
$VEL.CP=0.057097
LIN {X 1297.448975, Y 230.841217, Z 858.119690, A 0.000000, B 180.000000, C 0.000000} 
$VEL.CP=0.064008
LIN {X 1270.057495, Y 249.277725, Z 861.369812, A 0.000000, B 180.000000, C 0.000000} 
$VEL.CP=0.065030
LIN {X 1299.233765, Y 270.763763, Z 861.162476, A 0.000000, B 180.000000, C 0.000000} 
$VEL.CP=0.057822
LIN {X 1274.675659, Y 283.714447, Z 863.082153, A 0.000000, B 180.000000, C 0.000000} 
$VEL.CP=0.078457
LIN {X 1270.693115, Y 293.984589, Z 864.683533, A 0.000000, B 180.000000, C 0.000000} 
$VEL.CP=0.061232
LIN {X 1302.154541, Y 322.053375, Z 866.674438, A 0.000000, B 180.000000, C 0.000000} 
$VEL.CP=0.080113
LIN {X 1273.260620, Y 342.335083, Z 874.218323, A 0.000000, B 180.000000, C 0.000000} 
$VEL.CP=0.060015
LIN {X 1307.060791, Y 367.175903, Z 878.952637, A 0.000000, B 180.000000, C 0.000000} 
$VEL.CP=0.072370
LIN {X 1279.834717, Y 384.067169, Z 886.922974, A 0.000000, B 180.000000, C 0.000000} 
$VEL.CP=0.049184
LIN {X 1307.419800, Y 403.603882, Z 891.622803, A 0.000000, B 180.000000, C 0.000000} 
$VEL.CP=0.061537
LIN {X 1306.641602, Y 410.668640, Z 894.309753, A 0.000000, B 180.000000, C 0.000000} 
$VEL.CP=0.064695
LIN {X 1283.587158, Y 418.807922, Z 898.380981, A 0.000000, B 180.000000, C 0.000000} 
$VEL.CP=0.051221
LIN {X 1311.172607, Y 442.767242, Z 901.295288, A 0.000000, B 180.000000, C 0.000000} 
$VEL.CP=0.058026
LIN {X 1287.784546, Y 456.191772, Z 899.244812, A 0.000000, B 180.000000, C 0.000000} 
$VEL.CP=0.053151
LIN {X 1307.555664, Y 475.157867, Z 894.249878, A 0.000000, B 180.000000, C 0.000000} 
$VEL.CP=0.076998
LIN {X 1287.742065, Y 499.895081, Z 890.374390, A 0.000000, B 180.000000, C 0.000000} 
$VEL.CP=0.061191
LIN {X 1308.509766, Y 529.658936, Z 883.818237, A 0.000000, B 180.000000, C 0.000000} 
$VEL.CP=0.058536
LIN {X 1288.109375, Y 549.908386, Z 882.518799, A 0.000000, B 180.000000, C 0.000000} 
$VEL.CP=0.054417
LIN {X 1306.025757, Y 576.054993, Z 877.929993, A 0.000000, B 180.000000, C 0.000000} 
$VEL.CP=0.073800
LIN {X 1285.445801, Y 596.948669, Z 876.448914, A 0.000000, B 180.000000, C 0.000000} 
$VEL.CP=0.065244
LIN {X 1309.948364, Y 618.615662, Z 873.548462, A 0.000000, B 180.000000, C 0.000000} 
$VEL.CP=0.063838
LIN {X 1285.128052, Y 641.929810, Z 878.162964, A 0.000000, B 180.000000, C 0.000000} 
$VEL.CP=0.058294
LIN {X 1309.218384, Y 662.474854, Z 880.261536, A 0.000000, B 180.000000, C 0.000000} 
$VEL.CP=0.066602
LIN {X 1286.984619, Y 683.521667, Z 879.926208, A 0.000000, B 180.000000, C 0.000000} 
$VEL.CP=0.069617
LIN {X 1309.464844, Y 706.499451, Z 880.670959, A 0.000000, B 180.000000, C 0.000000} 
$VEL.CP=0.068921
LIN {X 1285.166138, Y 735.230835, Z 874.108154, A 0.000000, B 180.000000, C 0.000000} 
$VEL.CP=0.060717
LIN {X 1309.255127, Y 755.705139, Z 868.228088, A 0.000000, B 180.000000, C 0.000000} 
$VEL.CP=0.071495
LIN {X 1285.983643, Y 781.179565, Z 863.473267, A 0.000000, B 180.000000, C 0.000000} 
$VEL.CP=0.069318
LIN {X 1312.536133, Y 810.574158, Z 857.697388, A 0.000000, B 180.000000, C 0.000000} 
$VEL.CP=0.069915
LIN {X 1292.015259, Y 844.105774, Z 854.601990, A 0.000000, B 180.000000, C 0.000000} 
$VEL.CP=0.064933
LIN {X 1317.460083, Y 861.788147, Z 852.025574, A 0.000000, B 180.000000, C 0.000000} 
$VEL.CP=0.017324
LIN {X 1294.125000, Y 901.151611, Z 849.855530, A 0.000000, B 180.000000, C 0.000000} 
LIN {X 1321.188110, Y 918.450134, Z 847.585876, A 0.000000, B 180.000000, C 0.000000} 
$VEL.CP=0.000000
END