DEF output\path_01.src
PTP $POS_ACT
$VEL.CP=0.132742
LIN {X 1021.710788, Y -547.198540, Z 632.801115, A 262.395350, B 9.465803, C 185.728928} 
$VEL.CP=0.212571
LIN {X 1028.455225, Y -448.114545, Z 630.559000, A 253.506919, B 8.734326, C 184.414125} 
$VEL.CP=0.218649
LIN {X 1008.071517, Y -309.711407, Z 627.129308, A 245.752438, B 8.138249, C 184.046286} 
$VEL.CP=0.217616
LIN {X 1010.593631, Y -233.409291, Z 624.439792, A 241.011688, B 10.270285, C 179.711610} 
$VEL.CP=0.200335
LIN {X 1000.153749, Y -151.582728, Z 623.322174, A 236.698592, B 11.140673, C 179.299808} 
$VEL.CP=0.156706
LIN {X 999.351354, Y -55.783552, Z 619.259534, A 227.780650, B 10.074422, C 178.962702} 
$VEL.CP=0.120944
LIN {X 1005.855893, Y 19.132937, Z 609.030817, A 221.629520, B 10.614457, C 177.108979} 
$VEL.CP=0.111455
LIN {X 1006.183343, Y 48.474911, Z 596.267169, A 219.831144, B 11.982425, C 176.105547} 
$VEL.CP=0.086397
LIN {X 1011.520399, Y 67.982320, Z 592.994234, A 217.115678, B 12.513491, C 175.258128} 
$VEL.CP=0.153604
LIN {X 1029.333058, Y 82.030846, Z 605.736311, A 213.272577, B 12.677926, C 175.344785} 
$VEL.CP=0.166888
LIN {X 1096.668183, Y 52.690319, Z 615.026701, A 210.794204, B 8.874168, C 176.106391} 
$VEL.CP=0.057003
LIN {X 1191.880160, Y -5.178268, Z 621.994438, A 206.684997, B 8.044638, C 174.607939} 
$VEL.CP=0.174932
LIN {X 1269.418366, Y -74.426602, Z 623.568044, A 206.721701, B 7.146123, C 175.833383} 
$VEL.CP=0.220108
LIN {X 1380.890103, Y -132.321911, Z 622.520010, A 209.207282, B 5.798241, C 174.277653} 
$VEL.CP=0.203384
LIN {X 1486.374525, Y -218.228409, Z 620.690834, A 214.034573, B 2.967634, C 177.725064} 
$VEL.CP=0.179949
LIN {X 1507.817686, Y -259.784637, Z 621.433983, A 217.983571, B 3.469047, C 178.393166} 
$VEL.CP=0.153027
LIN {X 1520.219980, Y -323.154780, Z 623.333721, A 222.386093, B 4.403695, C 179.905142} 
$VEL.CP=0.113847
LIN {X 1506.266488, Y -429.020841, Z 626.639235, A 230.585160, B 5.452577, C 181.389131} 
$VEL.CP=0.123182
LIN {X 1515.983067, Y -496.368219, Z 629.055899, A 234.854112, B 7.665238, C 179.492763} 
$VEL.CP=0.134062
LIN {X 1505.610288, Y -531.667493, Z 630.519801, A 236.271084, B 6.212900, C 181.315897} 
$VEL.CP=0.151389
LIN {X 1480.215680, Y -572.516178, Z 631.937702, A 239.644806, B 7.385604, C 181.077262} 
$VEL.CP=0.242893
LIN {X 1425.387086, Y -589.399834, Z 632.339338, A 241.821258, B 8.908017, C 181.895316} 
$VEL.CP=0.055261
LIN {X 1210.192930, Y -578.834746, Z 630.832228, A 248.422706, B 11.304482, C 184.407322} 
LIN {X 1033.365021, Y -554.171979, Z 632.421231, A 264.756930, B 10.561629, C 188.975790} 
$VEL.CP=0.000000
END