DEF output\path_02.src
PTP $POS_ACT
$VEL.CP=0.014732
LIN {X 1275.369732, Y 181.575761, Z 855.044073, A 0.000000, B 90.000000, C 0.000000} 
$VEL.CP=0.040643
LIN {X 1290.370242, Y 184.088340, Z 855.624907, A 0.000000, B 90.000000, C 0.000000} 
$VEL.CP=0.047216
LIN {X 1294.253569, Y 192.789010, Z 855.845224, A 0.000000, B 90.000000, C 0.000000} 
$VEL.CP=0.055398
LIN {X 1269.050362, Y 210.044063, Z 858.884991, A 0.000000, B 90.000000, C 0.000000} 
$VEL.CP=0.057097
LIN {X 1297.448972, Y 230.841221, Z 858.119662, A 0.000000, B 90.000000, C 0.000000} 
$VEL.CP=0.064008
LIN {X 1270.057537, Y 249.277728, Z 861.369801, A 0.000000, B 90.000000, C 0.000000} 
$VEL.CP=0.065030
LIN {X 1299.233772, Y 270.763765, Z 861.162450, A 0.000000, B 90.000000, C 0.000000} 
$VEL.CP=0.057822
LIN {X 1274.675717, Y 283.714454, Z 863.082129, A 0.000000, B 90.000000, C 0.000000} 
$VEL.CP=0.078457
LIN {X 1270.693160, Y 293.984588, Z 864.683558, A 0.000000, B 90.000000, C 0.000000} 
$VEL.CP=0.061232
LIN {X 1302.154532, Y 322.053379, Z 866.674418, A 0.000000, B 90.000000, C 0.000000} 
$VEL.CP=0.080113
LIN {X 1273.260562, Y 342.335078, Z 874.218297, A 0.000000, B 90.000000, C 0.000000} 
$VEL.CP=0.060015
LIN {X 1307.060739, Y 367.175918, Z 878.952665, A 0.000000, B 90.000000, C 0.000000} 
$VEL.CP=0.072370
LIN {X 1279.834766, Y 384.067167, Z 886.922949, A 0.000000, B 90.000000, C 0.000000} 
$VEL.CP=0.049184
LIN {X 1307.419793, Y 403.603883, Z 891.622804, A 0.000000, B 90.000000, C 0.000000} 
$VEL.CP=0.061537
LIN {X 1306.641610, Y 410.668625, Z 894.309744, A 0.000000, B 90.000000, C 0.000000} 
$VEL.CP=0.064695
LIN {X 1283.587102, Y 418.807924, Z 898.380975, A 0.000000, B 90.000000, C 0.000000} 
$VEL.CP=0.051221
LIN {X 1311.172601, Y 442.767255, Z 901.295298, A 0.000000, B 90.000000, C 0.000000} 
$VEL.CP=0.058026
LIN {X 1287.784593, Y 456.191768, Z 899.244803, A 0.000000, B 90.000000, C 0.000000} 
$VEL.CP=0.053151
LIN {X 1307.555666, Y 475.157862, Z 894.249902, A 0.000000, B 90.000000, C 0.000000} 
$VEL.CP=0.076998
LIN {X 1287.742033, Y 499.895067, Z 890.374361, A 0.000000, B 90.000000, C 0.000000} 
$VEL.CP=0.061191
LIN {X 1308.509762, Y 529.658942, Z 883.818247, A 0.000000, B 90.000000, C 0.000000} 
$VEL.CP=0.058536
LIN {X 1288.109421, Y 549.908410, Z 882.518777, A 0.000000, B 90.000000, C 0.000000} 
$VEL.CP=0.054417
LIN {X 1306.025696, Y 576.054997, Z 877.929988, A 0.000000, B 90.000000, C 0.000000} 
$VEL.CP=0.073800
LIN {X 1285.445786, Y 596.948698, Z 876.448891, A 0.000000, B 90.000000, C 0.000000} 
$VEL.CP=0.065244
LIN {X 1309.948318, Y 618.615662, Z 873.548457, A 0.000000, B 90.000000, C 0.000000} 
$VEL.CP=0.063838
LIN {X 1285.128093, Y 641.929823, Z 878.162949, A 0.000000, B 90.000000, C 0.000000} 
$VEL.CP=0.058294
LIN {X 1309.218336, Y 662.474836, Z 880.261552, A 0.000000, B 90.000000, C 0.000000} 
$VEL.CP=0.066602
LIN {X 1286.984648, Y 683.521651, Z 879.926182, A 0.000000, B 90.000000, C 0.000000} 
$VEL.CP=0.069617
LIN {X 1309.464875, Y 706.499437, Z 880.670971, A 0.000000, B 90.000000, C 0.000000} 
$VEL.CP=0.068921
LIN {X 1285.166085, Y 735.230817, Z 874.108136, A 0.000000, B 90.000000, C 0.000000} 
$VEL.CP=0.060717
LIN {X 1309.255099, Y 755.705168, Z 868.228101, A 0.000000, B 90.000000, C 0.000000} 
$VEL.CP=0.071495
LIN {X 1285.983612, Y 781.179595, Z 863.473263, A 0.000000, B 90.000000, C 0.000000} 
$VEL.CP=0.069318
LIN {X 1312.536180, Y 810.574187, Z 857.697364, A 0.000000, B 90.000000, C 0.000000} 
$VEL.CP=0.069915
LIN {X 1292.015250, Y 844.105761, Z 854.601994, A 0.000000, B 90.000000, C 0.000000} 
$VEL.CP=0.064933
LIN {X 1317.460023, Y 861.788164, Z 852.025583, A 0.000000, B 90.000000, C 0.000000} 
$VEL.CP=0.017324
LIN {X 1294.125012, Y 901.151629, Z 849.855537, A 0.000000, B 90.000000, C 0.000000} 
LIN {X 1321.188074, Y 918.450155, Z 847.585876, A 0.000000, B 90.000000, C 0.000000} 
$VEL.CP=0.000000
END